X: 260
T: Fang fengzheng
%%abc-version 2.0
%%abcx-abcm2ps-target-version 5.9.1 (29 Sep 2008)
%%abc-creator hum2abc beta
%%abcx-conversion-date 2013/10/02 07:52:29
%%abc-edited-by Helmut Schaffrath
%%humdrum-veritas 2576049355
%%humdrum-veritas-data 3829405180
%%continueall 1
%%barnumbers 0
L: 1/8
M: 2/4
K: G
d2g e [I:setbarnb 1]| 
d2B A | 
d2g e | 
d g B A | 
G3E | 
d e d d | 
E G B A | 
G4 | 
B GA2 | 
A d B/ d/ B/ A/ | 
d GA2 | 
A d B d | 
g B A/ B/ A/ G/ | 
G E D D | 
d d d G | 
A B A E | 
D4 |]  



